X:231
T: OLL MANN WULL RIEDEN, WOHL HAD HE KEEN PEERD
N: Z0230
O: Europa, Mitteleuropa, Deutschland, Pommern
R: Erzaehlung, lustige Romanze, Spott - Lied
M: 3/8
L: 1/16
K: F
F2F2G2 | E2D2C2 |
F2FEFA | G6 |
B2B2BB | A2G2F2 |
F2G2A2 | F2EDC2 |
F2F2A2 | G2F2z2

@@@ Tune index: 9989
